assets/Facebook-Logo.svg

<?xml version="1.0" encoding="UTF-8" standalone="no"?>
<!-- Generator: Adobe Illustrator 16.0.0, SVG Export Plug-In . SVG Version: 6.00 Build 0)  -->

<svg
   xmlns:dc="http://purl.org/dc/elements/1.1/"
   xmlns:cc="http://creativecommons.org/ns#"
   xmlns:rdf="http://www.w3.org/1999/02/22-rdf-syntax-ns#"
   xmlns:svg="http://www.w3.org/2000/svg"
   xmlns="http://www.w3.org/2000/svg"
   xmlns:sodipodi="http://sodipodi.sourceforge.net/DTD/sodipodi-0.dtd"
   xmlns:inkscape="http://www.inkscape.org/namespaces/inkscape"
   version="1.1"
   id="Layer_1"
   x="0px"
   y="0px"
   width="266.893px"
   height="266.895px"
   viewBox="0 0 266.893 266.895"
   enable-background="new 0 0 266.893 266.895"
   xml:space="preserve"
   inkscape:version="0.91pre3 r13670"
   sodipodi:docname="Facebook-Logo.svg"><metadata
     id="metadata9"><rdf:RDF><cc:Work
         rdf:about=""><dc:format>image/svg+xml</dc:format><dc:type
           rdf:resource="http://purl.org/dc/dcmitype/StillImage" /><dc:title></dc:title></cc:Work></rdf:RDF></metadata><defs
     id="defs7" /><sodipodi:namedview
     pagecolor="#ffff00"
     bordercolor="#666666"
     borderopacity="1"
     objecttolerance="10"
     gridtolerance="10"
     guidetolerance="10"
     inkscape:pageopacity="0"
     inkscape:pageshadow="2"
     inkscape:window-width="1920"
     inkscape:window-height="1003"
     id="namedview5"
     showgrid="false"
     inkscape:zoom="0.8842429"
     inkscape:cx="-37.321057"
     inkscape:cy="133.44749"
     inkscape:window-x="-9"
     inkscape:window-y="-9"
     inkscape:window-maximized="1"
     inkscape:current-layer="Layer_1" /><path
     style="fill:#ffffff;fill-opacity:1"
     d="M 18.8125 4.5878906 C 10.9555 4.5878906 4.5878906 10.9555 4.5878906 18.8125 L 4.5878906 248.08203 C 4.5878906 255.93703 10.9545 262.30664 18.8125 262.30664 L 142.24219 262.30664 L 142.24219 162.50391 L 108.6582 162.50391 L 108.6582 123.60938 L 142.24219 123.60938 L 142.24219 94.925781 C 142.24219 61.638781 162.57258 43.511719 192.26758 43.511719 C 206.49158 43.511719 218.7173 44.570922 222.2793 45.044922 L 222.2793 79.832031 L 201.68359 79.841797 C 185.53559 79.841797 182.4082 87.516344 182.4082 98.777344 L 182.4082 123.60938 L 220.92383 123.60938 L 215.9082 162.50391 L 182.4082 162.50391 L 182.4082 262.30664 L 248.08203 262.30664 C 255.93603 262.30664 262.30469 255.93803 262.30469 248.08203 L 262.30469 18.8125 C 262.30469 10.9555 255.93703 4.5878906 248.08203 4.5878906 L 18.8125 4.5878906 z "
     id="Blue_1_" /></svg>

<svg xmlns="http://www.w3.org/2000/svg" width="266.893" height="266.895"><path d="M18.813 4.588c-7.857 0-14.225 6.368-14.225 14.224v229.27c0 7.855 6.366 14.225 14.224 14.225h123.43v-99.803h-33.584v-38.895h33.584V94.926c0-33.287 20.33-51.414 50.026-51.414 14.224 0 26.45 1.059 30.011 1.533v34.787l-20.595.01c-16.148 0-19.276 7.674-19.276 18.935v24.832h38.516l-5.016 38.895h-33.5v99.803h65.674c7.854 0 14.223-6.369 14.223-14.225V18.812c0-7.857-6.368-14.224-14.223-14.224H18.812z" fill="#fff"/></svg>
